icons/platformio-dark.svg

<svg xmlns="http://www.w3.org/2000/svg" width="256" height="256" fill="none"><rect width="256" height="256" fill="#282828" rx="60"/><ellipse cx="128" cy="128.9" fill="#FFF" rx="81.5" ry="52.3"/><path fill="#E57200" d="m165.4 69.8 5.9-21.2c6-.5 10.8-5.6 10.8-11.8 0-6.5-5.3-11.8-11.8-11.8s-11.8 5.3-11.8 11.8c0 4.3 2.3 8.1 5.7 10.1l-5.8 20.8c-16.5-4.2-30.5-3.9-30.5-3.9l-2.6 1.2v161.3l2.6.9c15.6 0 83.8-47.1 84-97.6-.1-36.3-24.1-52.5-46.5-59.8M149 173.7c-13.3-21.3-7.7-70.7 27.1-77.8 9.5-1.5 21.2 4.7 24.6 18.6 8.7 29.6-42.4 70.9-51.7 59.2m20.8-45.5c-5.9 0-10.8 4.8-10.8 10.8 0 5.9 4.8 10.8 10.8 10.8 5.9 0 10.8-4.8 10.8-10.8s-4.8-10.8-10.8-10.8m3.3 9.9c-1.5 0-2.7-1.2-2.7-2.7s1.2-2.7 2.7-2.7 2.7 1.2 2.7 2.7-1.2 2.7-2.7 2.7"/><path fill="#FF7F00" d="m97.3 68.2-5.8-21.6c3.3-2.1 5.5-5.8 5.5-10 0-6.5-5.3-11.8-11.8-11.8s-11.8 5.3-11.8 11.8 5.3 11.8 11.8 11.8L91 70.1c-22.5 7.5-46.8 23.8-46.8 59.4.5 51.5 68.2 97.6 83.8 97.6V63.9c-.1 0-14.2-.1-30.7 4.3m11.9 105.5c-9.3 11.7-60.4-29.6-51.7-59.1 3.4-13.9 15.1-20.2 24.6-18.6 34.7 7 40.4 56.4 27.1 77.7m-21.6-45.2c-5.9 0-10.8 4.8-10.8 10.8 0 5.9 4.8 10.8 10.8 10.8 5.9 0 10.8-4.8 10.8-10.8s-4.8-10.8-10.8-10.8m-3.2 9.9c-1.5 0-2.7-1.2-2.7-2.7s1.2-2.7 2.7-2.7 2.7 1.2 2.7 2.7-1.2 2.7-2.7 2.7"/></svg>

<svg width="256" height="256" viewBox="0 0 256 256" fill="none" xmlns="http://www.w3.org/2000/svg">
<rect width="256" height="256" rx="60" fill="#282828"/>
<ellipse fill="#FFFFFF" cx="128" cy="128.9" rx="81.5" ry="52.3"/>
<path fill="#E57200" d="M165.4,69.8l5.9-21.2c6-0.5,10.8-5.6,10.8-11.8c0-6.5-5.3-11.8-11.8-11.8c-6.5,0-11.8,5.3-11.8,11.8
	c0,4.3,2.3,8.1,5.7,10.1l-5.8,20.8c-16.5-4.2-30.5-3.9-30.5-3.9l-2.6,1.2v161.3l2.6,0.9c15.6,0,83.8-47.1,84-97.6
	C211.8,93.3,187.8,77.1,165.4,69.8L165.4,69.8z M149,173.7c-13.3-21.3-7.7-70.7,27.1-77.8c9.5-1.5,21.2,4.7,24.6,18.6
	C209.4,144.1,158.3,185.4,149,173.7z M169.8,128.2c-5.9,0-10.8,4.8-10.8,10.8l0,0c0,5.9,4.8,10.8,10.8,10.8c0,0,0,0,0,0
	c5.9,0,10.8-4.8,10.8-10.8C180.6,133,175.8,128.2,169.8,128.2L169.8,128.2z M173.1,138.1c-1.5,0-2.7-1.2-2.7-2.7
	c0-1.5,1.2-2.7,2.7-2.7s2.7,1.2,2.7,2.7C175.8,136.9,174.6,138.1,173.1,138.1L173.1,138.1z"/>
<path fill="#FF7F00" d="M97.3,68.2l-5.8-21.6c3.3-2.1,5.5-5.8,5.5-10c0-6.5-5.3-11.8-11.8-11.8c-6.5,0-11.8,5.3-11.8,11.8
	c0,6.5,5.3,11.8,11.8,11.8l5.8,21.7c-22.5,7.5-46.8,23.8-46.8,59.4c0.5,51.5,68.2,97.6,83.8,97.6V63.9
	C127.9,63.9,113.8,63.8,97.3,68.2L97.3,68.2z M109.2,173.7c-9.3,11.7-60.4-29.6-51.7-59.1c3.4-13.9,15.1-20.2,24.6-18.6
	C116.8,103,122.5,152.4,109.2,173.7L109.2,173.7z M87.6,128.5c-5.9,0-10.8,4.8-10.8,10.8c0,5.9,4.8,10.8,10.8,10.8c0,0,0,0,0,0
	c5.9,0,10.8-4.8,10.8-10.8C98.4,133.3,93.6,128.5,87.6,128.5C87.6,128.5,87.6,128.5,87.6,128.5L87.6,128.5z M84.4,138.4
	c-1.5,0-2.7-1.2-2.7-2.7c0-1.5,1.2-2.7,2.7-2.7c1.5,0,2.7,1.2,2.7,2.7C87.1,137.2,85.9,138.4,84.4,138.4z"/>
</svg>
